X: 24
T:Ten Penny Bit
M:6/8
L:1/8
K:ADor
eAA eAA|BAB GBd|eAA eAA def gfg|eAA eAA|!
BAB GBd|edB gBB|BAG A3:|!
|:A2 a aga|bge dBG|A2 a aga|bge g3|!
A2 a aga|bge dBG|edB gBB|BAG A3:|!

